X: 127103
T: JOHN OF PARIS
P: Same figure.
%R: jig
B: James Kerr "Merry Melodies" v.1 p.27 s.1 #3
Z: 2017 John Chambers <jc:trillian.mit.edu>
N: The "Same figure" annotation is a mystery.
M: 6/8
L: 1/8
K: A
|: ed |\
vc2vc cBc | ve2vc cBc | vd2vf ua2uf | e2c cBc |\
d2B BAB | c2A AGA | B2f e2d | c2A A2 :|
ue |\
e2d cde | f2g !1!a2b | c'2b agf | e2d cde |\
f2f fdB | e2e ecA | d2B c2A | B2A GF"_D.C."E |]

%%sep 1 1 500
%%sep 1 1 500

